X:43
T:Too Young to Marry
M:C
L:1/8
R:Reel
N:Bob Carlin &amp; Judy Hyman, Banging &amp; Sawing
N:Rounder 0197
N:Transcribed by Bruce Thomson
K:D
|:"D"aAbA aAeg|fd3d2fg|aAbA aAga|"G"bgbg "A"e2fg|
"D"aAbA aAeg|fd3d2ef|"A"gfed cABc|1"D"d3dd2fg:|2"D"d3dd2(3ABc|:
"D"dBAG FEDF|"G"GABcd2Bc|"D"dBAG FEDF|"A"E3EE2Bc|
"D"dBAG FEDF|"G"GABc dedB|"A"ABcd egfe|"D"d3dd4:|
